image/logo-landify.svg

<svg width="105" height="28" viewBox="0 0 105 28" fill="none" xmlns="http://www.w3.org/2000/svg">
<path d="M0.575439 27.9998H10.0686C14.5701 27.9998 18.2193 24.3506 18.2193 19.8491H8.72612C4.22463 19.8491 0.575439 23.4983 0.575439 27.9998Z" fill="#F22BB2"/>
<path d="M0.575439 8.63018V20.6165C5.07694 20.6165 8.72612 16.9673 8.72612 12.4658V0.479492C4.22463 0.479492 0.575439 4.12868 0.575439 8.63018Z" fill="#8C30F5"/>
<path d="M27.4246 0.00019455H17.9314C13.4299 0.00019455 9.78072 3.64938 9.78072 8.15088H19.2739C23.7754 8.15088 27.4246 4.50169 27.4246 0.00019455Z" fill="#FE9A22"/>
<path d="M27.4246 19.3698V7.38352C22.9231 7.38352 19.2739 11.0327 19.2739 15.5342V27.5205C23.7754 27.5205 27.4246 23.8713 27.4246 19.3698Z" fill="#2EC5CE"/>
<path d="M40.4 17.92V7.00002H37.2V21H45.4V17.92H40.4Z" fill="#0B0D17"/>
<path d="M53.8717 11V11.94C53.2117 11.18 52.2317 10.72 50.8917 10.72C48.2717 10.72 46.1117 13.02 46.1117 16C46.1117 18.98 48.2717 21.28 50.8917 21.28C52.2317 21.28 53.2117 20.82 53.8717 20.06V21H56.8717V11H53.8717ZM51.4917 18.44C50.1117 18.44 49.1117 17.5 49.1117 16C49.1117 14.5 50.1117 13.56 51.4917 13.56C52.8717 13.56 53.8717 14.5 53.8717 16C53.8717 17.5 52.8717 18.44 51.4917 18.44Z" fill="#0B0D17"/>
<path d="M64.9326 10.72C63.6126 10.72 62.6126 11.2 62.0726 11.94V11H59.0726V21H62.0726V15.54C62.0726 14.12 62.8326 13.48 63.9326 13.48C64.8926 13.48 65.6726 14.06 65.6726 15.3V21H68.6726V14.86C68.6726 12.16 66.9526 10.72 64.9326 10.72Z" fill="#0B0D17"/>
<path d="M77.9928 7.00002V11.94C77.3328 11.18 76.3528 10.72 75.0128 10.72C72.3928 10.72 70.2328 13.02 70.2328 16C70.2328 18.98 72.3928 21.28 75.0128 21.28C76.3528 21.28 77.3328 20.82 77.9928 20.06V21H80.9928V7.00002H77.9928ZM75.6128 18.44C74.2328 18.44 73.2328 17.5 73.2328 16C73.2328 14.5 74.2328 13.56 75.6128 13.56C76.9928 13.56 77.9928 14.5 77.9928 16C77.9928 17.5 76.9928 18.44 75.6128 18.44Z" fill="#0B0D17"/>
<path d="M84.6937 10.12C85.6737 10.12 86.4937 9.30002 86.4937 8.32002C86.4937 7.34002 85.6737 6.52002 84.6937 6.52002C83.7137 6.52002 82.8937 7.34002 82.8937 8.32002C82.8937 9.30002 83.7137 10.12 84.6937 10.12ZM83.1937 21H86.1937V11H83.1937V21Z" fill="#0B0D17"/>
<path d="M93.889 9.60002V6.72002C90.569 6.52002 89.029 8.20002 89.029 11H87.689V13.88H89.029V21H92.029V13.88H93.889V11H92.029C92.029 9.84002 92.769 9.50002 93.889 9.60002Z" fill="#0B0D17"/>
<path d="M101.681 11L99.8012 17.12L97.5812 11H94.2812L98.2612 20.54C97.8212 21.76 97.1612 22.2 95.7612 22.2V25C98.5612 25.14 100.341 23.88 101.461 20.7L104.881 11H101.681Z" fill="#0B0D17"/>
</svg>

<svg width="105" height="28" fill="none" xmlns="http://www.w3.org/2000/svg"><path d="M.6 28H10c4.5 0 8.1-3.6 8.1-8.2H8.7A8.2 8.2 0 00.6 28z" fill="#F22BB2"/><path d="M1 8.2v12c4.5 0 8.2-3.7 8.2-8.2V0A8.2 8.2 0 001 8.2z" fill="#8C30F5"/><path d="M27.4 0H18a8.2 8.2 0 00-8.1 8.2h9.5c4.5 0 8.1-3.7 8.1-8.2z" fill="#FE9A22"/><path d="M27.4 19.4v-12a8.2 8.2 0 00-8.1 8.1v12c4.5 0 8.1-3.6 8.1-8.1z" fill="#2EC5CE"/><path d="M40.4 18V7h-3.2v14h8.2v-3h-5zM53.9 11v1a3.8 3.8 0 00-3-1.3C48.3 10.7 46 13 46 16s2.2 5.3 4.8 5.3c1.3 0 2.3-.5 3-1.2v.9h3V11h-3zm-2.4 7.4c-1.4 0-2.4-.9-2.4-2.4s1-2.4 2.4-2.4 2.4.9 2.4 2.4-1 2.4-2.4 2.4zM65 10.7c-1.4 0-2.4.5-3 1.2V11h-3v10h3v-5.5c0-1.4.8-2 2-2 .9 0 1.7.6 1.7 1.8V21h3v-6.1c0-2.7-1.7-4.2-3.8-4.2zM78 7v5a3.8 3.8 0 00-3-1.3c-2.6 0-4.8 2.3-4.8 5.3s2.2 5.3 4.8 5.3c1.4 0 2.3-.5 3-1.2v.9h3V7h-3zm-2.4 11.4c-1.4 0-2.4-.9-2.4-2.4s1-2.4 2.4-2.4 2.4.9 2.4 2.4-1 2.4-2.4 2.4zM84.7 10.1c1 0 1.8-.8 1.8-1.8s-.8-1.8-1.8-1.8-1.8.8-1.8 1.8.8 1.8 1.8 1.8zM83.2 21h3V11h-3v10zM93.9 9.6V6.7C90.6 6.5 89 8.2 89 11h-1.3v2.9H89V21h3v-7.1H94V11H92c0-1.2.8-1.5 1.9-1.4zM101.7 11l-1.9 6.1-2.2-6.1h-3.3l4 9.5c-.5 1.3-1.1 1.7-2.5 1.7V25c2.8.1 4.5-1.1 5.7-4.3l3.4-9.7h-3.2z" fill="#0B0D17"/></svg>
